source/img/sprite/menu.svg

<svg width="26" height="26" viewBox="0 0 26 26" fill="none" xmlns="http://www.w3.org/2000/svg">
<path d="M0 3.54541H26V5.71534H0V3.54541Z" fill="white"/>
<path d="M0 20.2846H26V22.4545H0V20.2846Z" fill="white"/>
<path d="M0 11.915H16.64V14.0849H0V11.915Z" fill="white"/>
</svg>

<svg viewBox="0 0 26 26" fill="none" xmlns="http://www.w3.org/2000/svg"><path d="M0 3.55h26v2.17h-26v-2.17Zm0 16.73h26v2.17h-26v-2.17Zm0-8.37h16.64v2.17h-16.64v-2.17Z" fill="#fff"/></svg>
